; G-Code generated by Simplify3D(R) Version 4.1.1
; Nov 19, 2019 at 2:31:25 PM
; Settings Summary
;   processName,PLA
;   applyToModels,EyeView_MotorGondelLagerBlock
;   profileName,PLA
;   profileVersion,2019-05-28 16:44:14
;   baseProfile,Creality Ender 3
;   printMaterial,PLA
;   printQuality,Medium
;   printExtruders,
;   extruderName,Primary Extruder
;   extruderToolheadNumber,0
;   extruderDiameter,0.4
;   extruderAutoWidth,0
;   extruderWidth,0.35
;   extrusionMultiplier,1.15
;   extruderUseRetract,1
;   extruderRetractionDistance,4
;   extruderExtraRestartDistance,0
;   extruderRetractionZLift,0
;   extruderRetractionSpeed,2400
;   extruderUseCoasting,0
;   extruderCoastingDistance,0.2
;   extruderUseWipe,0
;   extruderWipeDistance,5
;   primaryExtruder,0
;   layerHeight,0.2
;   topSolidLayers,3
;   bottomSolidLayers,3
;   perimeterOutlines,2
;   printPerimetersInsideOut,1
;   startPointOption,2
;   startPointOriginX,0
;   startPointOriginY,0
;   sequentialIslands,0
;   spiralVaseMode,0
;   firstLayerHeightPercentage,120
;   firstLayerWidthPercentage,150
;   firstLayerUnderspeed,0.5
;   useRaft,0
;   raftExtruder,0
;   raftTopLayers,3
;   raftBaseLayers,2
;   raftOffset,3
;   raftSeparationDistance,0.14
;   raftTopInfill,100
;   aboveRaftSpeedMultiplier,0.3
;   useSkirt,1
;   skirtExtruder,0
;   skirtLayers,1
;   skirtOutlines,2
;   skirtOffset,4
;   usePrimePillar,0
;   primePillarExtruder,999
;   primePillarWidth,12
;   primePillarLocation,7
;   primePillarSpeedMultiplier,1
;   useOozeShield,0
;   oozeShieldExtruder,999
;   oozeShieldOffset,2
;   oozeShieldOutlines,1
;   oozeShieldSidewallShape,1
;   oozeShieldSidewallAngle,30
;   oozeShieldSpeedMultiplier,1
;   infillExtruder,0
;   internalInfillPattern,Rectilinear
;   externalInfillPattern,Rectilinear
;   infillPercentage,25
;   outlineOverlapPercentage,15
;   infillExtrusionWidthPercentage,100
;   minInfillLength,5
;   infillLayerInterval,1
;   internalInfillAngles,45,-45
;   overlapInternalInfillAngles,0
;   externalInfillAngles,45,-45
;   generateSupport,1
;   supportExtruder,0
;   supportInfillPercentage,30
;   supportExtraInflation,0
;   supportBaseLayers,0
;   denseSupportExtruder,0
;   denseSupportLayers,0
;   denseSupportInfillPercentage,70
;   supportLayerInterval,1
;   supportHorizontalPartOffset,0.3
;   supportUpperSeparationLayers,1
;   supportLowerSeparationLayers,1
;   supportType,0
;   supportGridSpacing,1.5
;   maxOverhangAngle,45
;   supportAngles,0
;   temperatureName,Primary Extruder,Heated Bed
;   temperatureNumber,0,0
;   temperatureSetpointCount,2,2
;   temperatureSetpointLayers,1,2,1,2
;   temperatureSetpointTemperatures,210,195,60,50
;   temperatureStabilizeAtStartup,1,1
;   temperatureHeatedBed,0,1
;   fanLayers,1,2
;   fanSpeeds,0,100
;   blipFanToFullPower,0
;   adjustSpeedForCooling,1
;   minSpeedLayerTime,15
;   minCoolingSpeedSlowdown,20
;   increaseFanForCooling,0
;   minFanLayerTime,45
;   maxCoolingFanSpeed,100
;   increaseFanForBridging,0
;   bridgingFanSpeed,100
;   use5D,1
;   relativeEdistances,0
;   allowEaxisZeroing,1
;   independentExtruderAxes,0
;   includeM10123,0
;   stickySupport,1
;   applyToolheadOffsets,0
;   gcodeXoffset,0
;   gcodeYoffset,0
;   gcodeZoffset,0
;   overrideMachineDefinition,1
;   machineTypeOverride,0
;   strokeXoverride,220
;   strokeYoverride,220
;   strokeZoverride,250
;   originOffsetXoverride,-5
;   originOffsetYoverride,-5
;   originOffsetZoverride,0
;   homeXdirOverride,-1
;   homeYdirOverride,-1
;   homeZdirOverride,-1
;   flipXoverride,1
;   flipYoverride,-1
;   flipZoverride,1
;   toolheadOffsets,0,0|0,0|0,0|0,0|0,0|0,0
;   overrideFirmwareConfiguration,1
;   firmwareTypeOverride,RepRap (Marlin/Repetier/Sprinter)
;   GPXconfigOverride,r2
;   baudRateOverride,115200
;   overridePrinterModels,1
;   printerModelsOverride
;   startingGcode,G28 ; home all axes,G1 X5 Y10 Z0.2 F3000 ; get ready to prime,G92 E0 ; reset extrusion distance,G1 X160 E15 F600 ; prime nozzle,G1 X180 F5000 ; quick wipe
;   layerChangeGcode,
;   retractionGcode,
;   toolChangeGcode,
;   endingGcode,G28 X0 ; home X axis,M106 S0 ; turn off cooling fan,M104 S0 ; turn off extruder,M140 S0 ; turn off bed,M84 ; disable motors
;   exportFileFormat,gcode
;   celebration,0
;   celebrationSong,Random Song
;   postProcessing,
;   defaultSpeed,2000
;   outlineUnderspeed,0.5
;   solidInfillUnderspeed,0.8
;   supportUnderspeed,0.8
;   rapidXYspeed,4800
;   rapidZspeed,1000
;   minBridgingArea,50
;   bridgingExtraInflation,0
;   bridgingExtrusionMultiplier,1
;   bridgingSpeedMultiplier,1
;   useFixedBridgingAngle,0
;   fixedBridgingAngle,0
;   applyBridgingToPerimeters,0
;   filamentDiameters,1.75|1.75|1.75|1.75|1.75|1.75
;   filamentPricesPerKg,46|46|46|46|46|46
;   filamentDensities,1.25|1.25|1.25|1.25|1.25|1.25
;   useMinPrintHeight,0
;   minPrintHeight,0
;   useMaxPrintHeight,0
;   maxPrintHeight,0
;   useDiaphragm,0
;   diaphragmLayerInterval,20
;   robustSlicing,1
;   mergeAllIntoSolid,0
;   onlyRetractWhenCrossingOutline,1
;   retractBetweenLayers,1
;   useRetractionMinTravel,0
;   retractionMinTravel,3
;   retractWhileWiping,0
;   onlyWipeOutlines,1
;   avoidCrossingOutline,0
;   maxMovementDetourFactor,3
;   toolChangeRetractionDistance,12
;   toolChangeExtraRestartDistance,-0.5
;   toolChangeRetractionSpeed,600
;   externalThinWallType,0
;   internalThinWallType,2
;   thinWallAllowedOverlapPercentage,10
;   singleExtrusionMinLength,1
;   singleExtrusionMinPrintingWidthPercentage,50
;   singleExtrusionMaxPrintingWidthPercentage,200
;   singleExtrusionEndpointExtension,0.2
;   horizontalSizeCompensation,0
G90
M82
M106 S0
M140 S60
M190 S60
M104 S210 T0
M109 S210 T0
G28 ; home all axes
G1 X5 Y10 Z0.2 F3000 ; get ready to prime
G92 E0 ; reset extrusion distance
G1 X160 E15 F600 ; prime nozzle
G1 X180 F5000 ; quick wipe
; process PLA
; layer 1, Z = 0.240
T0
G92 E0.0000
G1 E-4.0000 F2400
; feature skirt
; tool H0.240 W0.525
G1 Z0.240 F1000
G1 X93.936 Y95.187 F4800
G1 E0.0000 F2400
G92 E0.0000
G1 X95.187 Y93.936 E0.1066 F1000
G1 X95.445 Y93.712 E0.1272
G1 X96.861 Y92.652 E0.2337
G1 X97.149 Y92.468 E0.2543
G1 X98.701 Y91.620 E0.3609
G1 X99.013 Y91.478 E0.3815
G1 X100.670 Y90.860 E0.4880
G1 X100.998 Y90.763 E0.5086
G1 X102.726 Y90.387 E0.6152
G1 X103.065 Y90.339 E0.6358
G1 X104.744 Y90.219 E0.7372
G1 X104.915 Y90.213 E0.7475
G1 X125.085 Y90.213 E1.9626
G1 X125.256 Y90.219 E1.9729
G1 X126.935 Y90.339 E2.0743
G1 X127.274 Y90.387 E2.0949
G1 X129.002 Y90.763 E2.2015
G1 X129.330 Y90.860 E2.2221
G1 X130.987 Y91.478 E2.3286
G1 X131.298 Y91.620 E2.3492
G1 X132.851 Y92.468 E2.4558
G1 X133.139 Y92.652 E2.4764
G1 X134.555 Y93.712 E2.5829
G1 X134.813 Y93.936 E2.6035
G1 X136.064 Y95.187 E2.7101
G1 X136.288 Y95.445 E2.7307
G1 X137.348 Y96.861 E2.8373
G1 X137.532 Y97.149 E2.8579
G1 X138.380 Y98.702 E2.9644
G1 X138.522 Y99.013 E2.9850
G1 X139.140 Y100.670 E3.0916
G1 X139.237 Y100.998 E3.1122
G1 X139.613 Y102.726 E3.2187
G1 X139.661 Y103.065 E3.2393
G1 X139.781 Y104.744 E3.3407
G1 X139.787 Y104.915 E3.3510
G1 X139.787 Y125.085 E4.5662
G1 X139.781 Y125.256 E4.5765
G1 X139.661 Y126.935 E4.6779
G1 X139.613 Y127.274 E4.6985
G1 X139.237 Y129.002 E4.8050
G1 X139.140 Y129.330 E4.8256
G1 X138.522 Y130.987 E4.9322
G1 X138.380 Y131.298 E4.9528
G1 X137.532 Y132.851 E5.0593
G1 X137.348 Y133.139 E5.0799
G1 X136.288 Y134.555 E5.1865
G1 X136.064 Y134.813 E5.2071
G1 X134.813 Y136.064 E5.3136
G1 X134.555 Y136.288 E5.3342
G1 X133.139 Y137.348 E5.4408
G1 X132.851 Y137.532 E5.4614
G1 X131.298 Y138.380 E5.5680
G1 X130.987 Y138.522 E5.5886
G1 X129.330 Y139.140 E5.6951
G1 X129.002 Y139.237 E5.7157
G1 X127.274 Y139.613 E5.8223
G1 X126.935 Y139.661 E5.8429
G1 X125.256 Y139.781 E5.9443
G1 X125.085 Y139.787 E5.9546
G1 X104.915 Y139.787 E7.1697
G1 X104.744 Y139.781 E7.1800
G1 X103.065 Y139.661 E7.2814
G1 X102.726 Y139.613 E7.3020
G1 X100.998 Y139.237 E7.4086
G1 X100.670 Y139.140 E7.4292
G1 X99.013 Y138.522 E7.5357
G1 X98.702 Y138.380 E7.5563
G1 X97.149 Y137.532 E7.6629
G1 X96.861 Y137.348 E7.6835
G1 X95.445 Y136.288 E7.7900
G1 X95.187 Y136.064 E7.8106
G1 X93.936 Y134.813 E7.9172
G1 X93.712 Y134.555 E7.9378
G1 X92.652 Y133.139 E8.0443
G1 X92.468 Y132.851 E8.0649
G1 X91.620 Y131.298 E8.1715
G1 X91.478 Y130.987 E8.1921
G1 X90.860 Y129.330 E8.2987
G1 X90.763 Y129.002 E8.3193
G1 X90.387 Y127.274 E8.4258
G1 X90.339 Y126.935 E8.4464
G1 X90.219 Y125.256 E8.5478
G1 X90.213 Y125.085 E8.5581
G1 X90.213 Y104.915 E9.7733
G1 X90.219 Y104.744 E9.7835
G1 X90.339 Y103.065 E9.8850
G1 X90.387 Y102.726 E9.9056
G1 X90.763 Y100.998 E10.0121
G1 X90.860 Y100.670 E10.0327
G1 X91.478 Y99.013 E10.1393
G1 X91.620 Y98.701 E10.1599
G1 X92.468 Y97.149 E10.2664
G1 X92.652 Y96.861 E10.2870
G1 X93.712 Y95.445 E10.3936
G1 X93.936 Y95.187 E10.4142
G92 E0.0000
G1 E-4.0000 F2400
G1 X94.321 Y95.545 F4800
G1 E0.0000 F2400
G92 E0.0000
G1 X95.545 Y94.321 E0.1043 F1000
G1 X95.775 Y94.121 E0.1226
G1 X97.161 Y93.084 E0.2269
G1 X97.417 Y92.919 E0.2453
G1 X98.937 Y92.090 E0.3496
G1 X99.214 Y91.963 E0.3679
G1 X100.836 Y91.358 E0.4722
G1 X101.128 Y91.272 E0.4905
G1 X102.820 Y90.904 E0.5948
G1 X103.121 Y90.861 E0.6132
G1 X104.772 Y90.743 E0.7129
G1 X104.924 Y90.737 E0.7221
G1 X125.076 Y90.737 E1.9361
G1 X125.228 Y90.743 E1.9452
G1 X126.879 Y90.861 E2.0450
G1 X127.180 Y90.904 E2.0633
G1 X128.872 Y91.272 E2.1676
G1 X129.164 Y91.358 E2.1859
G1 X130.786 Y91.963 E2.2902
G1 X131.063 Y92.090 E2.3086
G1 X132.583 Y92.919 E2.4129
G1 X132.839 Y93.084 E2.4312
G1 X134.225 Y94.121 E2.5355
G1 X134.455 Y94.321 E2.5538
G1 X135.679 Y95.545 E2.6581
G1 X135.879 Y95.775 E2.6765
G1 X136.916 Y97.161 E2.7808
G1 X137.081 Y97.417 E2.7991
G1 X137.910 Y98.937 E2.9034
G1 X138.037 Y99.214 E2.9218
G1 X138.642 Y100.836 E3.0260
G1 X138.728 Y101.128 E3.0444
G1 X139.096 Y102.820 E3.1487
G1 X139.139 Y103.121 E3.1670
G1 X139.257 Y104.772 E3.2667
G1 X139.262 Y104.924 E3.2759
G1 X139.262 Y125.076 E4.4899
G1 X139.257 Y125.228 E4.4991
G1 X139.139 Y126.879 E4.5988
G1 X139.096 Y127.180 E4.6171
G1 X138.728 Y128.872 E4.7214
G1 X138.642 Y129.164 E4.7398
G1 X138.037 Y130.786 E4.8441
G1 X137.910 Y131.063 E4.8624
G1 X137.081 Y132.583 E4.9667
G1 X136.916 Y132.839 E4.9850
G1 X135.879 Y134.225 E5.0893
G1 X135.679 Y134.455 E5.1077
G1 X134.455 Y135.679 E5.2120
G1 X134.225 Y135.879 E5.2303
G1 X132.839 Y136.916 E5.3346
G1 X132.583 Y137.081 E5.3530
G1 X131.063 Y137.910 E5.4573
G1 X130.786 Y138.037 E5.4756
G1 X129.164 Y138.642 E5.5799
G1 X128.872 Y138.728 E5.5982
G1 X127.180 Y139.096 E5.7025
G1 X126.879 Y139.139 E5.7209
G1 X125.228 Y139.257 E5.8206
G1 X125.076 Y139.262 E5.8297
G1 X104.924 Y139.262 E7.0438
G1 X104.772 Y139.257 E7.0529
G1 X103.121 Y139.139 E7.1526
G1 X102.820 Y139.096 E7.1710
G1 X101.128 Y138.728 E7.2753
G1 X100.836 Y138.642 E7.2936
G1 X99.214 Y138.037 E7.3979
G1 X98.937 Y137.910 E7.4163
G1 X97.417 Y137.081 E7.5206
G1 X97.161 Y136.916 E7.5389
G1 X95.775 Y135.879 E7.6432
G1 X95.545 Y135.679 E7.6615
G1 X94.321 Y134.455 E7.7658
G1 X94.121 Y134.225 E7.7842
G1 X93.084 Y132.839 E7.8885
G1 X92.919 Y132.583 E7.9068
G1 X92.090 Y131.063 E8.0111
G1 X91.963 Y130.786 E8.0294
G1 X91.358 Y129.164 E8.1337
G1 X91.272 Y128.872 E8.1521
G1 X90.904 Y127.180 E8.2564
G1 X90.861 Y126.879 E8.2747
G1 X90.743 Y125.228 E8.3744
G1 X90.737 Y125.076 E8.3836
G1 X90.737 Y104.924 E9.5976
G1 X90.743 Y104.772 E9.6068
G1 X90.861 Y103.121 E9.7065
G1 X90.904 Y102.820 E9.7248
G1 X91.272 Y101.128 E9.8291
G1 X91.358 Y100.836 E9.8475
G1 X91.963 Y99.214 E9.9518
G1 X92.090 Y98.937 E9.9701
G1 X92.919 Y97.417 E10.0744
G1 X93.084 Y97.161 E10.0927
G1 X94.121 Y95.775 E10.1970
G1 X94.321 Y95.545 E10.2154
G92 E0.0000
G1 E-4.0000 F2400
; feature inner perimeter
G1 X98.039 Y98.968 F4800
G1 E0.0000 F2400
G92 E0.0000
G1 X98.968 Y98.039 E0.0792 F750
G1 X100.020 Y97.252 E0.1583
G1 X101.174 Y96.622 E0.2375
G1 X102.405 Y96.163 E0.3167
G1 X103.689 Y95.883 E0.3958
G1 X105.028 Y95.787 E0.4767
G1 X124.972 Y95.787 E1.6782
G1 X126.311 Y95.883 E1.7590
G1 X127.595 Y96.163 E1.8382
G1 X128.826 Y96.622 E1.9174
G1 X129.980 Y97.252 E1.9965
G1 X131.032 Y98.039 E2.0757
G1 X131.961 Y98.968 E2.1549
G1 X132.748 Y100.020 E2.2340
G1 X133.378 Y101.174 E2.3132
G1 X133.837 Y102.405 E2.3924
G1 X134.117 Y103.689 E2.4715
G1 X134.213 Y105.028 E2.5524
G1 X134.213 Y124.972 E3.7539
G1 X134.117 Y126.311 E3.8347
G1 X133.837 Y127.595 E3.9139
G1 X133.378 Y128.826 E3.9931
G1 X132.748 Y129.979 E4.0722
G1 X131.961 Y131.032 E4.1514
G1 X131.032 Y131.961 E4.2305
G1 X129.979 Y132.748 E4.3097
G1 X128.826 Y133.378 E4.3889
G1 X127.595 Y133.837 E4.4681
G1 X126.311 Y134.117 E4.5472
G1 X124.972 Y134.213 E4.6281
G1 X105.028 Y134.213 E5.8295
G1 X103.689 Y134.117 E5.9104
G1 X102.405 Y133.837 E5.9896
G1 X101.174 Y133.378 E6.0687
G1 X100.020 Y132.748 E6.1479
G1 X98.968 Y131.961 E6.2271
G1 X98.039 Y131.032 E6.3062
G1 X97.252 Y129.980 E6.3854
G1 X96.622 Y128.826 E6.4646
G1 X96.163 Y127.595 E6.5437
G1 X95.883 Y126.311 E6.6229
G1 X95.787 Y124.972 E6.7038
G1 X95.787 Y105.028 E7.9052
G1 X95.883 Y103.689 E7.9861
G1 X96.163 Y102.405 E8.0653
G1 X96.622 Y101.174 E8.1444
G1 X97.252 Y100.020 E8.2236
G1 X98.039 Y98.968 E8.3028
; feature outer perimeter
G1 X97.641 Y98.624 F4800
G92 E0.0000
G1 X98.624 Y97.641 E0.0837 F500
G1 X99.736 Y96.809 E0.1674
G1 X100.955 Y96.143 E0.2511
G1 X102.257 Y95.658 E0.3348
G1 X103.614 Y95.362 E0.4185
G1 X105.009 Y95.263 E0.5027
G1 X124.991 Y95.263 E1.7064
G1 X126.386 Y95.362 E1.7907
G1 X127.743 Y95.658 E1.8744
G1 X129.045 Y96.143 E1.9581
G1 X130.264 Y96.809 E2.0418
G1 X131.376 Y97.641 E2.1255
G1 X132.359 Y98.624 E2.2091
G1 X133.191 Y99.736 E2.2928
G1 X133.857 Y100.955 E2.3765
G1 X134.342 Y102.257 E2.4602
G1 X134.638 Y103.614 E2.5439
G1 X134.738 Y105.009 E2.6282
G1 X134.738 Y124.991 E3.8319
G1 X134.638 Y126.386 E3.9161
G1 X134.342 Y127.743 E3.9998
G1 X133.857 Y129.045 E4.0835
G1 X133.191 Y130.264 E4.1672
G1 X132.359 Y131.376 E4.2509
G1 X131.376 Y132.359 E4.3346
G1 X130.264 Y133.191 E4.4183
G1 X129.045 Y133.857 E4.5020
G1 X127.743 Y134.342 E4.5857
G1 X126.386 Y134.638 E4.6694
G1 X124.991 Y134.738 E4.7536
G1 X105.009 Y134.738 E5.9573
G1 X103.614 Y134.638 E6.0416
G1 X102.257 Y134.342 E6.1253
G1 X100.955 Y133.857 E6.2090
G1 X99.736 Y133.191 E6.2927
G1 X98.624 Y132.359 E6.3764
G1 X97.641 Y131.376 E6.4600
G1 X96.809 Y130.264 E6.5437
G1 X96.143 Y129.045 E6.6274
G1 X95.658 Y127.743 E6.7111
G1 X95.362 Y126.386 E6.7948
G1 X95.263 Y124.991 E6.8791
G1 X95.263 Y105.009 E8.0828
G1 X95.362 Y103.614 E8.1670
G1 X95.658 Y102.257 E8.2507
G1 X96.143 Y100.955 E8.3344
G1 X96.809 Y99.736 E8.4181
G1 X97.641 Y98.624 E8.5018
; feature inner perimeter
G1 X105.743 Y105.360 F4800
G92 E0.0000
G1 X105.514 Y105.733 E0.0264 F750
G1 X105.347 Y106.138 E0.0527
G1 X105.244 Y106.564 E0.0791
G1 X105.213 Y106.969 E0.1036
G1 X105.213 Y118.272 E0.7846
G1 X105.231 Y118.516 E0.7993
G1 X105.294 Y118.784 E0.8159
G1 X105.397 Y119.039 E0.8325
G1 X105.539 Y119.275 E0.8490
G1 X105.714 Y119.487 E0.8656
G1 X105.920 Y119.670 E0.8822
G1 X106.151 Y119.818 E0.8987
G1 X107.008 Y120.199 E0.9552
G1 X107.564 Y120.560 E0.9951
G1 X108.056 Y121.003 E1.0350
G1 X108.472 Y121.518 E1.0749
G1 X108.802 Y122.092 E1.1148
G1 X109.160 Y123.029 E1.1752
G1 X105.000 Y120.627 E1.4646
G1 X101.213 Y122.813 E1.7281
G1 X101.213 Y127.187 E1.9915
G1 X105.000 Y129.373 E2.2550
G1 X108.787 Y127.187 E2.5185
G1 X108.787 Y123.571 E2.7363
G1 X109.211 Y123.527 E2.7620
G1 X109.268 Y123.795 E2.7785
G1 X109.429 Y124.212 E2.8054
G1 X109.654 Y124.597 E2.8323
G1 X109.938 Y124.942 E2.8592
G1 X110.274 Y125.236 E2.8861
G1 X110.652 Y125.474 E2.9130
G1 X111.063 Y125.648 E2.9399
G1 X111.497 Y125.754 E2.9668
G1 X111.910 Y125.787 E2.9918
G1 X122.031 Y125.787 E3.6015
G1 X122.436 Y125.756 E3.6260
G1 X122.862 Y125.653 E3.6524
G1 X123.267 Y125.486 E3.6787
G1 X123.640 Y125.257 E3.7051
G1 X123.973 Y124.973 E3.7315
G1 X124.257 Y124.640 E3.7579
G1 X124.486 Y124.267 E3.7842
G1 X124.653 Y123.862 E3.8106
G1 X124.756 Y123.436 E3.8370
G1 X124.787 Y123.031 E3.8615
G1 X124.787 Y111.728 E4.5424
G1 X124.769 Y111.484 E4.5572
G1 X124.706 Y111.216 E4.5737
G1 X124.603 Y110.961 E4.5903
G1 X124.461 Y110.724 E4.6069
G1 X124.286 Y110.513 E4.6235
